X:1
T:The Banks of Sweet Dundee
M:6/8
L:1/8
K:G
 E| E2 E E/2- D3/2 E| B d2 ddd| B2 A E2 E| D3- D2 D| E/2- F3/2 EE-D E|\
G-A B- B2 d| B2 A E2 D| E3- E2 d| d2 d B/2- A3/2 G| A B2- B2 d| B2 B A/2- G3/2 E|\
 D3- D2 D| E/2- F3/2 EE-D E|G-A B- B2 d| B2 A E2 D| E3- E2||
